rospo-newyear-dark/16x16/clementine/kittens.svg

<svg height="22" viewBox="0 0 16 16" width="22" xmlns="http://www.w3.org/2000/svg"><path d="m5.8182521 2.9090909c-.8033453 0-1.4545451.9768725-1.4545451 2.1818177s.6511998 2.1818177 1.4545451 2.1818177 1.4545451-.9768725 1.4545451-2.1818177-.6511998-2.1818177-1.4545451-2.1818177zm3.6363628 0c-.8033453 0-1.4545451.9768725-1.4545451 2.1818177s.6511998 2.1818177 1.4545451 2.1818177c.8036361 0 1.4545451-.9768725 1.4545451-2.1818177s-.650909-2.1818177-1.4545451-2.1818177zm-5.9005805 3.6263992c-.0661091.0082909-.1291636.0255273-.1903272.0539636-.4891345.2280727-.6015563 1.0382544-.2500363 1.8082903.3517817.769964 1.0335997 1.208073 1.5227633.980073.4891635-.228218.6017453-1.0368.2500363-1.8067635-.3077818-.6737453-.8694544-1.0936725-1.3324361-1.0355634zm8.8916346 0c-.462546-.0581091-1.024727.3618181-1.332364 1.0355634-.351272.7699635-.239272 1.5785455.250182 1.8067635.489455.228 1.170909-.210109 1.522909-.980073.351273-.7700359.239273-1.5802176-.250182-1.8082903-.06109-.028436-.124363-.045673-.190545-.053964zm-4.5637083 1.4645088s-.7676362-.00218-1.2940361.4687271c-.7285089.652654-1.5695996 2.041091-1.5695996 2.041091-.4447272.696727-.6548362 1.064727-.6548362 1.450181 0 .762182.5700362 1.130909 1.3366542 1.130909.3375272 0 .5466908.0036 1.0980361-.281455 0 0 .3578909-.328727 1.2016725-.295272.8359271-.03346 1.1931634.290909 1.1931634.290909.5515635.285091.7697453.285818 1.107927.285818.766545 0 1.335272-.369455 1.335272-1.130909 0-.385454-.210181-.755636-.654545-1.451636 0 .000727-.862545-1.363345-1.5684359-2.039636-.4935272-.4713453-1.2954906-.4687271-1.2954906-.4687271z" fill="#d3dae3" stroke-width=".727273"/></svg>

<?xml version="1.0" encoding="UTF-8" standalone="no"?>
<svg
   xmlns:dc="http://purl.org/dc/elements/1.1/"
   xmlns:cc="http://creativecommons.org/ns#"
   xmlns:rdf="http://www.w3.org/1999/02/22-rdf-syntax-ns#"
   xmlns:svg="http://www.w3.org/2000/svg"
   xmlns="http://www.w3.org/2000/svg"
   xmlns:sodipodi="http://sodipodi.sourceforge.net/DTD/sodipodi-0.dtd"
   xmlns:inkscape="http://www.inkscape.org/namespaces/inkscape"
   id="Capa_1"
   xml:space="preserve"
   viewBox="0 0 16 16"
   height="22"
   width="22"
   version="1.1"
   y="0"
   x="0"
   sodipodi:docname="kittens.svg"
   inkscape:version="0.92.1 r"><metadata
     id="metadata8"><rdf:RDF><cc:Work
         rdf:about=""><dc:format>image/svg+xml</dc:format><dc:type
           rdf:resource="http://purl.org/dc/dcmitype/StillImage" /></cc:Work></rdf:RDF></metadata><sodipodi:namedview
     pagecolor="#ffffff"
     bordercolor="#666666"
     borderopacity="1"
     objecttolerance="10"
     gridtolerance="10"
     guidetolerance="10"
     inkscape:pageopacity="0"
     inkscape:pageshadow="2"
     inkscape:window-width="749"
     inkscape:window-height="480"
     id="namedview6"
     showgrid="false"
     inkscape:zoom="10.727273"
     inkscape:cx="11"
     inkscape:cy="11"
     inkscape:window-x="0"
     inkscape:window-y="0"
     inkscape:window-maximized="0"
     inkscape:current-layer="Capa_1" /><defs
     id="defs7"><style
       type="text/css"
       id="current-color-scheme">
   .ColorScheme-Text { color:#d3dae3; } .ColorScheme-Highlight { color:#5294e2; }
  </style></defs><path
     id="path4178"
     style="color:#d3dae3;fill:currentColor;stroke-width:0.72727257"
     class="ColorScheme-Text"
     d="m 5.8182521,2.9090909 c -0.8033453,0 -1.4545451,0.9768725 -1.4545451,2.1818177 0,1.2049452 0.6511998,2.1818177 1.4545451,2.1818177 0.8033453,0 1.4545451,-0.9768725 1.4545451,-2.1818177 0,-1.2049452 -0.6511998,-2.1818177 -1.4545451,-2.1818177 z m 3.6363628,0 c -0.8033453,0 -1.4545451,0.9768725 -1.4545451,2.1818177 0,1.2049452 0.6511998,2.1818177 1.4545451,2.1818177 0.8036361,0 1.4545451,-0.9768725 1.4545451,-2.1818177 0,-1.2049452 -0.650909,-2.1818177 -1.4545451,-2.1818177 z M 3.5540344,6.5354901 C 3.4879253,6.543781 3.4248708,6.5610174 3.3637072,6.5894537 2.8745727,6.8175264 2.7621509,7.6277081 3.1136709,8.397744 3.4654526,9.167708 4.1472706,9.605817 4.6364342,9.377817 5.1255977,9.149599 5.2381795,8.341017 4.8864705,7.5710535 4.5786887,6.8973082 4.0170161,6.477381 3.5540344,6.5354901 Z m 8.8916346,0 C 11.983123,6.477381 11.420942,6.8973082 11.113305,7.5710535 10.762033,8.341017 10.874033,9.149599 11.363487,9.377817 c 0.489455,0.228 1.170909,-0.210109 1.522909,-0.980073 0.351273,-0.7700359 0.239273,-1.5802176 -0.250182,-1.8082903 -0.06109,-0.028436 -0.124363,-0.045673 -0.190545,-0.053964 z M 7.8819607,7.9999989 c 0,0 -0.7676362,-0.00218 -1.2940361,0.4687271 -0.7285089,0.652654 -1.5695996,2.041091 -1.5695996,2.041091 -0.4447272,0.696727 -0.6548362,1.064727 -0.6548362,1.450181 0,0.762182 0.5700362,1.130909 1.3366542,1.130909 0.3375272,0 0.5466908,0.0036 1.0980361,-0.281455 0,0 0.3578909,-0.328727 1.2016725,-0.295272 0.8359271,-0.03346 1.1931634,0.290909 1.1931634,0.290909 0.5515635,0.285091 0.7697453,0.285818 1.107927,0.285818 0.766545,0 1.335272,-0.369455 1.335272,-1.130909 0,-0.385454 -0.210181,-0.755636 -0.654545,-1.451636 0,7.27e-4 -0.862545,-1.363345 -1.5684359,-2.039636 C 8.9197059,7.9973807 8.1177425,7.9999989 8.1177425,7.9999989 Z"
     inkscape:connector-curvature="0" /></svg>
